modules/boxicons-solid/icons/notes.svg

<svg xmlns="http://www.w3.org/2000/svg" width="24" height="24" viewBox="0 0 24 24" viewBox="0 0 24 24"><path d="M21,2H7C6.447,2,6,2.447,6,3v14c0,0.553,0.447,1,1,1h8c0.266,0,0.52-0.105,0.707-0.293l6-6C21.895,11.52,22,11.266,22,11V3 C22,2.447,21.553,2,21,2z M12.063,11h-3V9h3V11z M9.063,7V5h10v2H9.063z M15,16v-5c0,0,0.447,0,1,0h4L15,16z"/><path d="M16,22H3c-0.553,0-1-0.447-1-1V8h2v12h12V22z"/></svg>

<svg xmlns="http://www.w3.org/2000/svg" width="24" height="24" viewBox="0 0 24 24"><path d="M21 2H7a1 1 0 0 0-1 1v14a1 1 0 0 0 1 1h8c.266 0 .52-.105.707-.293l6-6A.996.996 0 0 0 22 11V3a1 1 0 0 0-1-1zm-8.937 9h-3V9h3v2zm-3-4V5h10v2h-10zM15 16v-5h5l-5 5z"/><path d="M16 22H3a1 1 0 0 1-1-1V8h2v12h12v2z"/></svg>
